X: 1
T: The Galway
R: hornpipe
M: 4/4
L: 1/8
K: Dmaj
|:FE|D2 FA dAFD|CDEF G2 FE|D2 FA dcdf|edcB AGFE|D2 FA dAFD|CDEF G2FG|AdcB AGFE|D2 CE D2:||:de|f2 fg fedc|BABc B2 Bd|e2 ef edcB|A2 ce a2 AB|d2 df edAF|GFGA BdcB|AdcB AGFE|D2 CE D2:|


Tune 38	Setting 12451

